X: 27012
T: Miss Galvin's
R: hornpipe
M: 4/4
K: Dmajor
(3gfe|:d2 cB AGFE|DAFA DAFA|cdcA GFGG|cdeg fdec|
d2 cB AGFE|DAFA DAFA|cdec AGAA|cdec d4|
fgaf d4|fgaf gbag|fgaf dcAA|cdef g2 fe|
fgaf d4|fgaf gbag|1 fgaf dcAA|cdef g2 fe:|
[2 fAeA dcAA|cdef g2 fe|f2 ed cBAG|F2 E2 D4||

